icons/creative-commons-nc-fill.svg

<svg viewBox="0 0 24 24" fill="currentColor" xmlns="http://www.w3.org/2000/svg"><path d="M4.25639 5.67208L7.83528 9.24858C7.62206 9.61662 7.5 10.0441 7.5 10.5C7.5 11.8807 8.61929 13 10 13H14L14.0899 13.0081C14.3231 13.0504 14.5 13.2545 14.5 13.5C14.5 13.7761 14.2761 14 14 14H8.5V16H11V18H13V16H14C14.1817 16 14.3589 15.9806 14.5296 15.9438L18.3279 19.7436C16.6042 21.1539 14.4009 22 12 22C6.47715 22 2 17.5228 2 12C2 9.5991 2.8461 7.39583 4.25639 5.67208ZM12 2C17.5228 2 22 6.47715 22 12C22 14.4009 21.1539 16.6042 19.7436 18.3279L16.1652 14.7507C16.3781 14.3828 16.5 13.9556 16.5 13.5C16.5 12.1193 15.3807 11 14 11H10L9.91012 10.9919C9.67688 10.9496 9.5 10.7455 9.5 10.5C9.5 10.2239 9.72386 10 10 10H15.5V8H13V6H11V8H10C9.81853 8 9.64159 8.01933 9.4711 8.05605L5.67208 4.25639C7.39583 2.8461 9.5991 2 12 2Z"/></svg>

<svg xmlns="http://www.w3.org/2000/svg" viewBox="0 0 24 24">
    <g>
        <path fill="none" d="M0 0h24v24H0z"/>
        <path d="M4.256 5.672l3.58 3.577a2.5 2.5 0 0 0 2 3.746L10 13h4l.09.008a.5.5 0 0 1 0 .984L14 14H8.5v2H11v2h2v-2h1c.121 0 .24-.009.357-.025l.173-.031 3.798 3.8A9.959 9.959 0 0 1 12 22C6.477 22 2 17.523 2 12c0-2.4.846-4.604 2.256-6.328zM12 2c5.523 0 10 4.477 10 10 0 2.4-.846 4.604-2.256 6.328l-3.579-3.577a2.5 2.5 0 0 0-2-3.745L14 11h-4l-.09-.008a.5.5 0 0 1 0-.984L10 10h5.5V8H13V6h-2v2h-1c-.121 0-.24.009-.356.025l-.173.031-3.799-3.8A9.959 9.959 0 0 1 12 2z"/>
    </g>
</svg>
